X:9
T:Kas a-Barh
R:Kas a-Barh
C:Trad.
O:France
A:Bretagne
Z:anamnese@caramail.com
N:tagafolk.abc
M:4/4
L:1/16
Q:1/4=85
K:C
A2GA B2Bd cBAG ABcd | AAGA B2Bd ccBBA4 |
AAGA B2Bd cBAG ABcd | AAGA BGBd ccB2 ABcd
|: e2ce f3d (3dddcd e2c2 | A2GA B2Bd  cBAG ABcd |
eceg agfe dG(3GGG efed |1 c2cA BGBd ccB2 ABcd :|2
c2cA BGBd ccB2 A4 ||
